X:756
T:Reel 756
M:4/4
K:Dmaj
L:1/8
G|FADF AFGF|EFGE FDDE|FAGB A2AF|EA,A,G, A,DDE|FDAD FDAF|EFGA B2AG|FA2B AGFD|EA,A,G, A,DD|A|FDAD FDDF|EFGA BEEG|FDAD FDAF|GBAG FDDG|FDAD FDAD|EFG,C EFGB|ecdA BABG|FDEC A,DD|
